img/system/3.svg

<svg width="39" height="46" viewBox="0 0 39 46" fill="none" xmlns="http://www.w3.org/2000/svg">
<path d="M0.369995 1.5293H38.42" stroke="#666666" stroke-width="2.5" stroke-miterlimit="10"/>
<path d="M3.48999 8C4.02056 10.4483 5.38495 12.6362 7.34998 14.1899C10.64 16.7499 15.9599 17.9601 16.0699 21.6201C16.1699 24.9401 12.01 26.39 8.73999 29.47C6.08999 31.97 3.73999 34.8499 3.48999 37.1699H6.56995L34.67 37.03C33.6974 34.4137 32.1453 32.0515 30.13 30.1201C27.27 27.5301 22.13 24.9501 22.13 21.8701C22.06 17.4001 27.85 16.5901 30.72 14.3601C33.41 12.2701 34.82 10.25 35.11 8.01001L3.48999 8Z" stroke="#666666" stroke-width="2.5" stroke-miterlimit="10"/>
<path d="M7.10999 37.1593C7.84999 35.4493 8.73995 33.8194 10.8199 33.2394C12.7512 32.79 14.6361 32.1607 16.45 31.3595C17.79 30.7095 18.7 30.2594 19.05 29.4694C19.8 27.8394 19.2 30.4695 22.79 31.8295C24.5112 32.3954 26.2643 32.8595 28.04 33.2194C29.68 33.6494 31.77 35.0394 31.58 37.0394" stroke="#666666" stroke-width="2.5" stroke-miterlimit="10"/>
<path d="M12.71 17.3799C14.39 17.7299 18.82 18.7999 19.17 21.3799L19.37 22.8899C19.4051 21.826 19.7227 20.7906 20.29 19.8899C21.8992 18.3749 23.8846 17.3185 26.04 16.8301" stroke="#666666" stroke-width="2.5" stroke-miterlimit="10"/>
<path d="M38.42 44.5508H0.369995" stroke="#666666" stroke-width="2.5" stroke-miterlimit="10"/>
</svg>

<svg width="39" height="46" fill="none" xmlns="http://www.w3.org/2000/svg"><path d="M.37 1.53h38.05M3.49 8a10.81 10.81 0 003.86 6.19c3.29 2.56 8.61 3.77 8.72 7.43.1 3.32-4.06 4.77-7.33 7.85-2.65 2.5-5 5.38-5.25 7.7h3.08l28.1-.14a18.499 18.499 0 00-4.54-6.91c-2.86-2.59-8-5.17-8-8.25-.07-4.47 5.72-5.28 8.59-7.51 2.69-2.09 4.1-4.11 4.39-6.35L3.49 8z" stroke="#666" stroke-width="2.5" stroke-miterlimit="10"/><path d="M7.11 37.16c.74-1.71 1.63-3.34 3.71-3.92a31.736 31.736 0 005.63-1.88c1.34-.65 2.25-1.1 2.6-1.89.75-1.63.15 1 3.74 2.36a46.178 46.178 0 005.25 1.39c1.64.43 3.73 1.82 3.54 3.82M12.71 17.38c1.68.35 6.11 1.42 6.46 4l.2 1.51a6 6 0 01.92-3 12.38 12.38 0 015.75-3.06m12.38 27.72H.37" stroke="#666" stroke-width="2.5" stroke-miterlimit="10"/></svg>
